assets/efishery/petugas.svg

<svg width="24" height="25" viewBox="0 0 24 25" fill="none" xmlns="http://www.w3.org/2000/svg">
<path fill-rule="evenodd" clip-rule="evenodd" d="M7.75 14.7734C6.50736 14.7734 5.5 15.7808 5.5 17.0234V20.2734H18V17.0234C18 15.7808 16.9926 14.7734 15.75 14.7734H15.6639C15.505 14.9972 15.2658 15.2906 14.9358 15.584C14.2654 16.1799 13.2196 16.7734 11.75 16.7734C10.2804 16.7734 9.23457 16.1799 8.56423 15.584C8.23417 15.2906 7.99495 14.9972 7.83612 14.7734H7.75ZM8.9205 13.6874C8.9205 13.6874 8.9205 13.6874 8.9205 13.6874L8.91968 13.6858L8.91888 13.6842C8.91944 13.6853 8.91995 13.6863 8.9205 13.6874ZM14.5815 13.6834C14.7094 13.432 14.9677 13.2734 15.25 13.2734H15.75C17.8211 13.2734 19.5 14.9524 19.5 17.0234V21.0234C19.5 21.4377 19.1642 21.7734 18.75 21.7734H4.75C4.33579 21.7734 4 21.4377 4 21.0234V17.0234C4 14.9524 5.67893 13.2734 7.75 13.2734H8.25C8.53235 13.2734 8.79101 13.4328 8.91888 13.6842L8.92131 13.6887C8.92516 13.6958 8.93269 13.7094 8.94401 13.7286C8.96668 13.7671 9.00421 13.8274 9.05733 13.9024C9.16414 14.0532 9.33029 14.258 9.56077 14.4629C10.0154 14.867 10.7196 15.2734 11.75 15.2734C12.7804 15.2734 13.4846 14.867 13.9392 14.4629C14.1697 14.258 14.3359 14.0532 14.4427 13.9024C14.4958 13.8274 14.5333 13.7671 14.556 13.7286C14.5673 13.7094 14.5748 13.6958 14.5787 13.6887L14.5815 13.6834ZM14.5795 13.6874C14.5802 13.6861 14.5808 13.6847 14.5815 13.6834C14.5815 13.6835 14.5818 13.6828 14.5815 13.6834L14.5803 13.6858L14.5795 13.6874ZM8.91832 13.6831C8.91831 13.6831 8.91831 13.6831 8.91832 13.6831V13.6831Z" fill="#1D1D1D"/>
<path fill-rule="evenodd" clip-rule="evenodd" d="M16.4411 6.27344C16.0815 4.00645 14.1182 2.27344 11.75 2.27344C9.12665 2.27344 7 4.40008 7 7.02344C7 7.43765 7.33579 7.77344 7.75 7.77344H8V10.0234C8 12.0945 9.67893 13.7734 11.75 13.7734C13.8211 13.7734 15.5 12.0945 15.5 10.0234V7.77344H17.75C18.1642 7.77344 18.5 7.43765 18.5 7.02344C18.5 6.60922 18.1642 6.27344 17.75 6.27344H16.4411ZM8.58697 6.27344H14.913C14.5745 4.84009 13.2868 3.77344 11.75 3.77344C10.2132 3.77344 8.92555 4.84009 8.58697 6.27344ZM14 7.77344H9.5V10.0234C9.5 11.2661 10.5074 12.2734 11.75 12.2734C12.9926 12.2734 14 11.2661 14 10.0234V7.77344Z" fill="#1D1D1D"/>
<path fill-rule="evenodd" clip-rule="evenodd" d="M11 21.0234V16.0234H12.5V21.0234H11Z" fill="#1D1D1D"/>
</svg>

<svg viewBox="0 0 24 25" xmlns="http://www.w3.org/2000/svg">
  <path fill-rule="evenodd" clip-rule="evenodd" d="M7.75 14.773a2.25 2.25 0 0 0-2.25 2.25v3.25H18v-3.25a2.25 2.25 0 0 0-2.25-2.25h-.086a4.85 4.85 0 0 1-.728.811c-.67.596-1.716 1.19-3.186 1.19s-2.515-.594-3.186-1.19a4.845 4.845 0 0 1-.728-.81H7.75zm1.17-1.086v-.001l-.001-.002c0 .001 0 .002.002.003zm5.662-.004a.75.75 0 0 1 .668-.41h.5a3.75 3.75 0 0 1 3.75 3.75v4a.75.75 0 0 1-.75.75h-14a.75.75 0 0 1-.75-.75v-4a3.75 3.75 0 0 1 3.75-3.75h.5c.282 0 .541.16.669.411l.002.005.023.04a3.348 3.348 0 0 0 .617.734c.454.404 1.159.81 2.189.81s1.735-.406 2.19-.81a3.347 3.347 0 0 0 .616-.734l.023-.04.002-.006zm-.003.004.002-.004v.003l-.002.001zm-5.66-.004z"/>
  <path fill-rule="evenodd" clip-rule="evenodd" d="M16.441 6.273A4.751 4.751 0 0 0 7 7.023c0 .415.336.75.75.75H8v2.25a3.75 3.75 0 1 0 7.5 0v-2.25h2.25a.75.75 0 0 0 0-1.5h-1.309zm-7.854 0h6.326a3.251 3.251 0 0 0-6.326 0zM14 7.773H9.5v2.25a2.25 2.25 0 1 0 4.5 0v-2.25zM11 21.023v-5h1.5v5H11z"/>
</svg>
